src/assets/icons/candy-cane.svg

<svg xmlns="http://www.w3.org/2000/svg" viewBox="0 0 60 60" fill="currentcolor"><path d="M30 0c-9.9 0-18 8.1-18 18v3c0 3.3 2.7 6 6 6s6-2.7 6-6v-3c0-3.3 2.7-6 6-6s6 2.7 6 6v36.1c0 3.3 2.7 5.9 6 5.9s6-2.7 6-6V18c0-9.9-8.1-18-18-18zm5.1 11.8L37.7 4c1.2.7 2.4 1.5 3.4 2.5l-5.2 6.1-.8-.8zm10.5 2.8L38 18.4c0-1.3-.3-3-.9-4.1L42.5 8c1.5 1.9 2.6 4.1 3.1 6.6zm.4 19.8l-8 4v-3.8l8-4v3.8zm0-6l-8 4v-5.8l8-4v5.8zm-8 12.2l8-4v5.8l-8 4v-5.8zM46 18v2.4l-8 4v-3.8l7.9-4c.1.5.1.9.1 1.4zm-8 30.6l8-4v3.8l-8 4v-3.8zM35.9 3.1l-2.5 7.6c-.8-.4-1.8-.6-2.8-.7l-4.2-7.6c1.1-.2 2.4-.4 3.6-.4 2.1 0 4.1.4 5.9 1.1zm-8.2 7.2l-6.6-5.7c1-.7 2.1-1.2 3.3-1.7l4 7.1c-.2.2-.5.3-.7.3zm-8.2-4.4l6.2 5.3c-.8.5-1.4 1.1-2 1.8l-9.2.9c.9-3.1 2.6-5.9 5-8zm2.7 10.4L14 19.9V18c0-.7.1-1.3.1-2l8.4-.8c-.1.3-.2.7-.3 1.1zM14.1 22l7.9-3.4V21c0 2.2-1.8 4-4 4-1.9 0-3.4-1.3-3.9-3zM42 58c-2 0-3.7-1.5-3.9-3.4l7.9-4V54c0 2.2-1.8 4-4 4zM17.2 11.3c.5-1.2 1.2-2.2 2-3.2.4-.4 1-.5 1.4-.1s.5 1 .1 1.4c-.7.8-1.3 1.8-1.7 2.7-.2.6-.9.7-1.3.5-.5-.2-.7-.8-.5-1.3zM29 4c0-.6.4-1 1-1 1.2 0 2.3.1 3.4.4.5.1.9.7.7 1.2-.1.5-.7.9-1.2.7C32 5.1 31 5 30 5c-.6 0-1-.4-1-1zm13 36.6V43c0 .6-.4 1-1 1s-1-.4-1-1v-2.4c0-.6.4-1 1-1s1 .5 1 1zM40 29v-1.9c0-.6.4-1 1-1s1 .4 1 1V29c0 .6-.4 1-1 1s-1-.4-1-1zm-.9-15c-.2-.5 0-1.1.5-1.3.5-.2 1.1 0 1.3.5.2.5.4 1.1.6 1.6.1.5-.2 1.1-.7 1.2-.5.2-1.1-.1-1.2-.7-.1-.5-.3-.9-.5-1.3z"/><text y="75" fill="#000" font-size="5" font-weight="bold" font-family="'Helvetica Neue', Helvetica, Arial-Unicode, Arial, Sans-serif">Created by Denis Shumaylov</text><text y="80" fill="#000" font-size="5" font-weight="bold" font-family="'Helvetica Neue', Helvetica, Arial-Unicode, Arial, Sans-serif">from the Noun Project</text></svg>

<svg xmlns="http://www.w3.org/2000/svg" xmlns:xlink="http://www.w3.org/1999/xlink" version="1.1" viewBox="0 0 60 60" fill="currentcolor">
  <path d="M30,0c-9.9,0-18,8.1-18,18v3c0,3.3,2.7,6,6,6s6-2.7,6-6v-3c0-3.3,2.7-6,6-6s6,2.7,6,6v36c0,0,0,0,0,0.1  c0,0,0,0,0,0c0,3.3,2.7,5.9,6,5.9c3.3,0,6-2.7,6-6V18C48,8.1,39.9,0,30,0z M35.1,11.8L37.7,4c1.2,0.7,2.4,1.5,3.4,2.5l-5.2,6.1  C35.6,12.3,35.4,12.1,35.1,11.8z M45.6,14.6L38,18.4c0-1.3-0.3-3-0.9-4.1L42.5,8C44,9.9,45.1,12.1,45.6,14.6z M46,34.4l-8,4v-3.8  l8-4V34.4z M46,28.4l-8,4v-5.8l8-4V28.4z M38,40.6l8-4v5.8l-8,4V40.6z M46,18v2.4l-8,4v-3.8l7.9-4C46,17.1,46,17.5,46,18z M38,48.6  l8-4v3.8l-8,4V48.6z M35.9,3.1l-2.5,7.6c-0.8-0.4-1.8-0.6-2.8-0.7l-4.2-7.6C27.5,2.2,28.8,2,30,2C32.1,2,34.1,2.4,35.9,3.1z   M27.7,10.3l-6.6-5.7c1-0.7,2.1-1.2,3.3-1.7l4,7.1C28.2,10.2,27.9,10.3,27.7,10.3z M19.5,5.9l6.2,5.3c-0.8,0.5-1.4,1.1-2,1.8  l-9.2,0.9C15.4,10.8,17.1,8,19.5,5.9z M22.2,16.3L14,19.9V18c0-0.7,0.1-1.3,0.1-2l8.4-0.8C22.4,15.5,22.3,15.9,22.2,16.3z M14.1,22  l7.9-3.4V21c0,2.2-1.8,4-4,4C16.1,25,14.6,23.7,14.1,22z M42,58c-2,0-3.7-1.5-3.9-3.4l7.9-4V54C46,56.2,44.2,58,42,58z M17.2,11.3  c0.5-1.2,1.2-2.2,2-3.2c0.4-0.4,1-0.5,1.4-0.1s0.5,1,0.1,1.4c-0.7,0.8-1.3,1.8-1.7,2.7c-0.2,0.6-0.9,0.7-1.3,0.5  C17.2,12.4,17,11.8,17.2,11.3z M29,4c0-0.6,0.4-1,1-1c1.2,0,2.3,0.1,3.4,0.4c0.5,0.1,0.9,0.7,0.7,1.2c-0.1,0.5-0.7,0.9-1.2,0.7  C32,5.1,31,5,30,5C29.4,5,29,4.6,29,4z M42,40.6V43c0,0.6-0.4,1-1,1s-1-0.4-1-1v-2.4c0-0.6,0.4-1,1-1S42,40.1,42,40.6z M40,29v-1.9  c0-0.6,0.4-1,1-1s1,0.4,1,1V29c0,0.6-0.4,1-1,1S40,29.6,40,29z M39.1,14c-0.2-0.5,0-1.1,0.5-1.3c0.5-0.2,1.1,0,1.3,0.5  c0.2,0.5,0.4,1.1,0.6,1.6c0.1,0.5-0.2,1.1-0.7,1.2c-0.5,0.2-1.1-0.1-1.2-0.7C39.5,14.8,39.3,14.4,39.1,14z"/>
  <text x="0" y="75" fill="#000000" font-size="5px" font-weight="bold" font-family="'Helvetica Neue', Helvetica, Arial-Unicode, Arial, Sans-serif">
    Created by Denis Shumaylov
  </text>
  <text x="0" y="80" fill="#000000" font-size="5px" font-weight="bold" font-family="'Helvetica Neue', Helvetica, Arial-Unicode, Arial, Sans-serif">
    from the Noun Project
  </text>
</svg>
